X: 2414
T: DOUBLE CLOG DANCE
R: hornpipe, clog
B: James Kerr "Merry Melodies" v.2 p.46 #414
Z: 2016 John Chambers <jc:trillian.mit.edu>
M: C
L: 1/8
K: Dmix
B>c |\
d>^cd>f g>e=c>A | G>FG>A B>GD>B, |\
G>FA>G B>Ac>B | d>^ce>d A2B>c |\
d>^cd>f g>e=c>A |
G>FG>A B>GD>B, |\
G,>gf>e d>ef>d | d^c=cA G2 :: F>G |\
A>BA>G F>Ad>f | e>fe>^c A>ce>g |
f>ed>f e>d^c>e | (3(dfe) (3(dcB) A2 F>G |\
A>BA>G F>Ad>f | e>fe>^c A>ce>g |\
f>ed>f e>d^c>e | d2f2 d2 :|
